X:459
T: NU UP JI RUTERS
N: E0408A
O: Europa, Mitteleuropa, Deutschland, Westfalen
R: Liebes - Lied
M: 6/8
L: 1/16
K: G
G2 | G4d2d4c2 | d4_B2A4
A2 | c4c2c2_B2A2 | _B2B2A2G4
G2 | G2_B2B2B2A2G2 | A6D4z2
_B4B2B4B2 | A3cc2c4
A2 | _B2d2d2d2c2B2 | A6G4

